X:1
T:Veni, sponsa Christi
T:Veni, sponsa Christi
T:Giovanni Girolamo Kapsperger
T:Source : Libro primo di mottetti passeggiati a una voce---Roma---1612. Racolta del Sig.Francesco de Nobile Editor : André Vierendeels (27/10/15).
T:Notes : Original clefs : C1, F4 Editorial accidentals above the staff Note values have been halved in 3-beat measures
C:Giovanni Girolamo Kapsperger
%%score 1 2
L:1/8
Q:1/4=80
M:4/4
K:C
V:1 treble nm="Soprano" snm="S"
V:2 bass nm="BC" snm="BC"
V:1
 d8 | B8 | e8 | c8 | A/B/c/d/ e/d/e/d/ e/d/d/d/ c/d/e | B E/^F/ G/A/B/^c/ d/c/d/c/ c/c/B/c/ | %6
w: Ve-|ni,|ve-|ni,|ve- * * * * * * * * * * * * * *|ni spon- * * * * * * * * * * * * *|
 d4 c/B/A/G/ ^F/E/F/D/ | E/^F/G/A/ B/c/d/G/ A4 | G4 e3 d | f4 e/d/c/B/ A/B/c/A/ | %10
w: sa _ _ _ _ _ _ _ _|_ _ _ _ _ _ _ _ Chri-|sti. Ac- ci-|pe co- * * * * * * *|
 B/c/d/c/ B/A/G/A/ B/G/A/B/ c/A/B/c/ | B/c/A/B/ B/B/B/A/ B4 | c8- | c4 c4 | d3 d e4- | e2 e2 d4 | %16
w: ro- * * * * * * * * * * * * * * *||nam|_ quam|ti- bi Do-|* mi- nus|
 Bc d/c/B cB c/B/A | BA B/A/G AB A/4B/4A/4B/4A/4A/4A/4G/4 | A6 G2 | %19
w: prae- * * * * pa- * * * *|ra- * * * * * * * * * * * * * *|vit in|
 E/^F/G/F/ G/E/F/G/ A/G/A/F/ G/A/B/F/ | ^G/A/B/c/ d/e/c/d/ e/A/B/c/ A/B/c/d/ | A/B/c/d/ c2 B4 | %22
w: e- * * * * * * * * * * * * * * *||* * * * * ter-|
 A8 | c3 c c c/d/ e/d/c | B/c/d/c/ BE/^F/ G/A/B/^c/ d/c/d/B/ | ^c/4d/4c/4d/4d/c/ c/c/c/B/ c4 | %26
w: num,|ac- ci- pe co- * * * *|* * * * * ro- * * * * * * * * *||
 d6 A2 | A4 B4 | G/A/B/c/ d/c/d/B/ c3 d/e/ | A3 B/c/ B/c/B/c/ B/B/B/A/ | B6 B/cd/ | %31
w: nam quam|ti- bi|Do- * * * * * * * * * *|* * * * * * * * * * mi-|nus prae- * *|
 e4 f/e/d/c/ B/c/d/c/ | B/A/G/F/ E/F/G/A/ B/c/d/c/ d/B/c/d/ | e2 d2 e/d/e/d/ e/d/d/c/- | d4 c4- | %35
w: pa- * * * * * * * *||ra- * * * * * * * * vit|_ in|
 c2 B/A/B/c/ B>c B/A/B/A/ | G>A G/^F/G/F/ E>F G/F/G/E/ | ^F3 G/A/ D2- D/ E/F/G/ | %38
w: _ e- * * * * * * * * *|||
 A/B/c/d/ e/^f/g/G/ A4 | G8 |[M:3/4] B2 c2 d2 | e3 G AG | AB cd cA |[M:4/4] B2 c4 B2 | c4 c3 d | %45
w: * * * * * * * * ter-|num.|Al- le- lu-|ia, Al- * *|le- * * * * *|lu- * *|ia, Al- *|
 e>d c/B/A/G/ F/E/^F/G/ A/B/c/d/ | G3 A/G/ A/G/G/G/ G/F/G | A4- A D/E/ ^F/G/A/B/ | %48
w: le- * * * * * * * * * * * * *|lu- * * * * * * * * *|ia, _ Al- * * * * *|
 c3 d/e/ A3 B/c/ | B3 c/d/ G3 A/B/ | E3 ^F/G/ F3 G/A/ | D>E ^F/G/A/B/ c/d/^c/c/ c/c/B/c/4d/4 | %52
w: le- * * * * *||||
 A>B A/B/A/B/ A/A/A/A/ G/A/B/G/ | A8 | !fermata!G8 |] %55
w: |lu-|ia.|
V:2
 G,,8- | G,,8 | A,,8- | A,,8 | A,,8 | E,8 | B,,8- | B,,4 C,4 | G,,4 C,3 B,, | A,,4 A,4 | G,8- | %11
 G,8 | C,8- | C,8 | B,,4 C,4- | C,4 G,,4 | G,4 F,4 | E,8 | C,4 A,,4 | C,4 D,4 | E,8 | D,4 E,4 | %22
 A,,8 | A,8 | G,8 | A,8 | D,8 | C,4 B,,4- | B,,4 A,,4 | A,,8 | E,8 | C,4 B,,4- | B,,4 B,,4 | C,8 | %34
 G,,4 A,,4 | E,8 | E,8 | D,8- | D,8 | G,,8 |[M:3/4] G,2 C2 G,2 | C,2 E,2 F,2 |"^#" F,G, A,2 F,2 | %43
[M:4/4] G,8 | C,8 | C,2 G,,2 G,,4 | E,8 | D,8 | A,,8 | E,8 | C,4 D,4 | D,8- | D,8 | D,8 | %54
 !fermata!G,,8 |] %55

